X:1
T:Pavane 
T:Gabriel Faure
%%score 1 2
L:1/8
Q:1/4=65
M:4/4
K:A
V:1 treble nm="Flute" snm="Fl."
V:2 bass nm="Bassoon" snm="Bsn."
V:1
"^\n" z8 | F2- F>G A2- A>B | AGAF G2- G>A | GFGE F2- F>^E | C8 | c2- c>d e2- e>f | edec d2- d>e | %7
 dcdB c2- c>^B | c8 | F2- F>G A2- A>B | AGAF G2- G>A | GFGE F2- F>^E | C8 | A2- A>B c2- c>d | %14
 cBcA B2- B>c | AGAA A2 G2 | F4 z4 | c2- c>^d e2 (3def | gfag e3 ^d | c2- c>^d e2 (3def | %20
 gfag e3 ^d | c2 (3^Bc^d e3 d | c2 (3^Bc^d e3 d | g6 (3fgf |!<(! !trill(!T^e8-!<)! |!>(! e8!>)! | %26
 F2- F>G A2- A>B | AGAF G2- G>A | GFGE F2- F>^E | C8 | c2- c>d e2- e>f | edec d2- d>e | %32
 dcdB c2- c>^B | c8 | F2- F>G A2- A>B | AGAF G2- G>A | GFGE F2- F>^E | C8 | A2- A>B c2- c>d | %39
 cBcA B2- B>c | AGAF F2 ^E2 | F^EE^D =D_EED | AGAF F2 ^E2 | F8 |] %44
V:2
 .F,.A,.C.A, .F,.A,.C.A, | .F,.A,.C.A, .D,.C.F.C | .E,.B,.E.B, .C,.B,.E.B, | %3
 .D,.A,.D.A, .B,.A.d.A | .C.G.^E.G .B,.G.E.G | .A,.F.C.F .F,.C.A,.C | .B,.F.A,.F .E,.B,.=G,.B, | %7
 .A,.E.=G,.E .D,.D.^G,.D | .C,.G,.C.D .B,.C.A,.G, | .F,.A,.C.A, .D,.A,.C.A, | %10
 .E,.B,.E.B, .C,.B,.E.B, | .D,.A,.D.A, .B,.A.d.A | .C.G.^E.G .B,.G.E.G | .A,.C.A,.C .=G,.E.A,.E | %14
 .F,.E.A,.D .E,.D.=G,.C | .D,.C.F,.=C .C,.B,.^C.B, | .F,.C.F.A .G.F.E.D | .C.=F.G.F .B,.G.C.G | %18
 .A,.C.F.C .G,.=c.F.c | .C.^E.G.E .G,.=E.G.E | .A,.E.c.E .B,.A.B.A | .G,.E.B.E .B,.A.B.A | %22
 .G,.E.B.E .B,.A.B.A | .E,.E.B.E .D,.F.B.F | .C,.G.A.F .G.B.c.A | .B,.D.E.C .D.B,.C.A, | %26
 .F,.A,.C.A, .D,.C.F.C | .E,.B,.E.B, .C,.B,.E.B, | .D,.A,.D.A, .B,.A,.D.A, | %29
 .C,.G,.^E.G, .B,.G.E.G | .A,.F.C.F .F,.C.A,.C | .B,.F.A,.F .E,.B,.=G,.B, | %32
 .A,.E.=G,.E .D.F.^G,.F | .C.G.c.d .B.c.A.G | .F,.A,.C.A, .D,.C.F.C | .E,.B,.E.B, .C,.B,.E.B, | %36
 .D,.A,.D.A, .B,,.A,.D.A, | .C.G.^E.G .B,.G.E.G | .A,.E.A,.C .=G,.E.A,.E | %39
 .F,.E.A,.D .E,.B,.=G,.C | .D,.C.F,.=C .C,.B,.^C.B, | .B,8 | .D4 .C4 | .F2 .C2 .F,4 |] %44

